X: 317
T: The Irishwoman
C: anon.
O: Ireland
B: Francis O'Neill: "The Dance Music of Ireland" (1907) no. 317
R: Double jig
Z: Transcribed by Frank Nordberg - http://www.musicaviva.com
F: http://www.musicaviva.com/abc/tunes/ireland/oneill-1001/oneill-1001-031
7.abc
M: 6/8
L: 1/8
K: G
(d/c/)|BGG DGG|BGB dcB|cAA FAA|cAc edc|BGG DGG|BGB dcB|cBc Adc|BGG G2:|
|:g|gdg gdg|gdg bag|fdf fdf|fdf agf|egg dgg|cgg Bgg|cAc Adc|BGG G2:|
W:
W:
W: From Musica Viva - http://www.musicaviva.com
W: the Internet center for free sheet music downloads.


